src/assets/images/tech/nodejs.svg

<svg width="32" height="32" viewBox="0 0 32 32" fill="none" xmlns="http://www.w3.org/2000/svg">
<g id="nodejs">
<g id="nodejs_2">
<path id="Vector" d="M14.5562 0.341395C15.4306 -0.112772 16.5694 -0.114823 17.4431 0.341395C21.8381 2.59502 26.2346 4.84511 30.6289 7.10011C31.4555 7.52259 32.0083 8.3573 31.9999 9.22153V22.7802C32.0061 23.6802 31.3986 24.5349 30.5266 24.9478C26.1459 27.189 21.7676 29.4329 17.3877 31.6741C16.4952 32.1372 15.3335 32.1015 14.4689 31.6005C13.1556 30.9096 11.84 30.2222 10.5266 29.532C10.2582 29.3868 9.95565 29.2712 9.76613 29.0351C9.93367 28.8301 10.2332 28.8046 10.4766 28.7151C11.0248 28.557 11.5283 28.303 12.0319 28.0566C12.1593 27.9775 12.3148 28.0079 12.4368 28.0786C13.5599 28.663 14.673 29.2643 15.7998 29.843C16.0402 29.9689 16.2836 29.8017 16.4891 29.6978C20.7878 27.4931 25.0919 25.2966 29.3899 23.0912C29.5491 23.0217 29.6371 22.8683 29.6242 22.71C29.6272 18.2373 29.625 13.7638 29.6257 9.29105C29.6439 9.11143 29.5294 8.94629 29.3504 8.87278C24.985 6.64184 20.6218 4.40747 16.2571 2.17596C16.1815 2.12878 16.0919 2.10347 16.0001 2.10334C15.9084 2.10322 15.8187 2.1283 15.7429 2.17527C11.3782 4.40747 7.01579 6.64389 2.6511 8.87472C2.47276 8.94834 2.35307 9.11075 2.3743 9.29105C2.37505 13.7638 2.3743 18.2373 2.3743 22.7107C2.36673 22.7879 2.38542 22.8654 2.42786 22.9327C2.4703 23 2.53445 23.0539 2.61167 23.0871C3.7764 23.6865 4.94265 24.2816 6.10814 24.8789C6.76474 25.1997 7.57091 25.3902 8.29432 25.1445C8.9327 24.9367 9.38019 24.3456 9.368 23.7305C9.37403 19.2839 9.36499 14.8366 9.37253 10.3906C9.35658 10.1932 9.56292 10.0301 9.77442 10.0487C10.3341 10.0453 10.8944 10.0419 11.4541 10.0501C11.6877 10.0453 11.8484 10.2578 11.8196 10.4567C11.8173 14.9315 11.8256 19.4064 11.8158 23.8811C11.8173 25.0737 11.2774 26.3714 10.0618 26.9549C8.56422 27.6589 6.71324 27.5096 5.23377 26.8345C3.95299 26.2544 2.73073 25.5698 1.47267 24.9484C0.598428 24.5377 -0.0060459 23.6796 0.000108097 22.7803V9.22153C-0.00906011 8.33941 0.565774 7.48954 1.41804 7.07321C5.79793 4.83018 10.1771 2.58545 14.5562 0.341395Z" fill="#8CC84B"/>
<path id="Vector_2" d="M18.3776 9.73365C20.2878 9.62207 22.3328 9.66755 24.0518 10.5215C25.3827 11.1759 26.1206 12.5494 26.144 13.8911C26.1069 14.0721 25.8984 14.1719 25.708 14.1595C25.1538 14.1588 24.5994 14.1664 24.0452 14.1561C23.81 14.1643 23.6734 13.9676 23.6439 13.779C23.4846 13.137 23.0988 12.5012 22.4329 12.1915C21.4107 11.7271 20.2255 11.7504 19.1109 11.7601C18.2972 11.7993 17.4222 11.8633 16.7328 12.2975C16.2036 12.6264 16.0428 13.2904 16.2317 13.8251C16.4098 14.2091 16.8982 14.333 17.2979 14.4472C19.6 14.9936 22.0395 14.9392 24.2976 15.6582C25.2325 15.9513 26.1471 16.5212 26.4671 17.4095C26.8857 18.6 26.7022 20.023 25.7688 20.9788C25.0118 21.7653 23.9094 22.1933 22.8098 22.4258C21.3471 22.7218 19.829 22.7293 18.3435 22.5979C16.9467 22.4534 15.4931 22.1204 14.4148 21.2567C13.4927 20.5302 13.0423 19.3981 13.087 18.3055C13.0977 18.121 13.3001 17.9923 13.4949 18.0075C14.0531 18.0034 14.6112 18.002 15.1693 18.0081C15.3923 17.9937 15.5575 18.1685 15.569 18.3592C15.6719 18.9708 15.9253 19.6128 16.513 19.9755C17.6474 20.6396 19.0707 20.5941 20.3696 20.6127C21.4457 20.5694 22.6536 20.5563 23.5317 19.9109C23.995 19.5427 24.1323 18.9269 24.0071 18.397C23.8715 17.9497 23.3558 17.7412 22.9129 17.6049C20.6404 16.9526 18.1736 17.1893 15.923 16.4516C15.0093 16.1585 14.1258 15.6045 13.7748 14.7527C13.2849 13.5472 13.5094 12.056 14.5406 11.1325C15.5461 10.2139 16.9976 9.86015 18.3776 9.73353V9.73365Z" fill="#8CC84B"/>
</g>
</g>
</svg>

<svg xmlns="http://www.w3.org/2000/svg" width="32" height="32" fill="none"><g fill="#8CC84B"><path d="M14.556.341c.875-.454 2.013-.456 2.887 0 4.395 2.254 8.792 4.504 13.186 6.76.826.422 1.38 1.256 1.37 2.12v13.56c.007.9-.6 1.754-1.472 2.167q-6.57 3.363-13.14 6.726c-.892.463-2.053.428-2.918-.073q-1.971-1.035-3.942-2.069c-.269-.145-.571-.26-.76-.497.167-.205.466-.23.71-.32.548-.158 1.051-.412 1.555-.658.127-.08.283-.05.405.022 1.123.584 2.236 1.185 3.363 1.764.24.126.484-.041.69-.145 4.298-2.205 8.602-4.401 12.9-6.607a.38.38 0 0 0 .234-.381q.002-6.71.002-13.419c.018-.18-.097-.345-.276-.418-4.365-2.231-8.728-4.466-13.093-6.697a.49.49 0 0 0-.514 0C11.378 4.406 7.016 6.643 2.65 8.874c-.178.073-.298.236-.277.416v13.42a.35.35 0 0 0 .054.222.4.4 0 0 0 .184.154q1.746.898 3.496 1.792c.657.32 1.463.511 2.186.265.639-.207 1.086-.798 1.074-1.413.006-4.447-.003-8.894.005-13.34-.016-.198.19-.36.401-.342.56-.004 1.12-.007 1.68.001a.363.363 0 0 1 .366.407c-.003 4.474.006 8.95-.004 13.424.001 1.193-.539 2.49-1.754 3.074-1.498.704-3.349.555-4.828-.12-1.281-.58-2.503-1.265-3.761-1.887C.598 24.538-.006 23.68 0 22.78V9.222c-.01-.883.566-1.732 1.418-2.149Q7.988 3.708 14.556.341"/><path d="M18.378 9.734c1.91-.112 3.955-.066 5.674.787 1.33.655 2.069 2.028 2.092 3.37-.037.181-.246.28-.436.268-.554 0-1.109.007-1.663-.003-.235.008-.372-.188-.401-.377-.16-.642-.545-1.278-1.211-1.588-1.022-.464-2.207-.44-3.322-.43-.814.038-1.689.102-2.378.537-.53.328-.69.992-.501 1.527.178.384.666.508 1.066.622 2.302.547 4.742.492 7 1.211.935.293 1.85.863 2.17 1.752.418 1.19.234 2.613-.7 3.569-.756.786-1.859 1.214-2.958 1.447-1.463.296-2.981.303-4.466.172-1.397-.145-2.85-.478-3.93-1.341-.921-.727-1.372-1.859-1.327-2.952.01-.184.213-.313.408-.297a92 92 0 0 1 1.674 0 .376.376 0 0 1 .4.351c.103.612.356 1.254.944 1.616 1.134.665 2.558.62 3.857.638 1.076-.044 2.284-.057 3.162-.702.463-.368.6-.984.475-1.514-.136-.447-.651-.656-1.094-.792-2.273-.652-4.74-.416-6.99-1.153-.914-.294-1.797-.848-2.148-1.7-.49-1.205-.266-2.696.766-3.62 1.005-.918 2.457-1.272 3.837-1.398"/></g></svg>
